X: 1
T: the Glenburnie Rant
T: Fight About the Fireside
C: Neil Gow
R: reel
Z: John Chambers <jc:trillian.mit.edu>
M: C|
L: 1/8
K: Em
|: B2 \
| "Em"E2EF E2E2 | "D"DEFG AFDF |\
"Em"E2EF E2B2 | "B7"efe^d "Em"e2 :|
|: B2  \
| "Em"e2ef g2fe | "D"defg afdf |\
[1 "C"e2ef   g2fe | "B7"efe^d "Em"e2 :|\
[2 "G"g2bg "D"f2af | "B7"efe^d "Em"e2 |]
